X: 3
T:Ffarwel i'r Marian
T:Farewell to Marian
M:3/4
L:1/8
Q:160
C:Trad
S:Blodau'r Grug Collection Vol. 1
R:Waltz
A:Wales
Z:brian_martin12345@yahoo.com
K:Dm
AdA=B^cd|e2A4|fgfede|^c2A4|AdAGAF|BdBABG|FAF2E2|D6:||!
A2c3A|G2A4|A2c3d|e2A4|f2g3g|f2e2d2|cec2=B2|A6|!
AdA=B^cd|e2A4|fgfede|^c2A4|AdAGAF|BdBABG|FAF2E2|D6||
